X:1
T:Title
%%score { ( 1 3 ) | ( 2 4 ) }
L:1/8
M:2/4
K:Bb
V:1 treble nm="Grand Piano"
V:3 treble 
V:2 bass 
V:4 bass 
V:1
 z2 z[Q:1/4=100] F | FD GD | FE EF | AG FE | DG FF | BA cB | AG GG | cB AB |[M:7/16] [CA]GF3/2 | %9
[M:6/8] z F2 z G2 | z2 E- E3 | z A2 z F2 | z D2- D3 | z B2 z c2 | z2 G- G3 | .G2 D BBA- | %16
[M:5/8] A[DB]- [DB]3- | [DB] z z z2 |] %18
V:2
 z4 | B,,2 [D,F,B,]2 | C,2 [F,A,C]2 | F,,2 [F,A,C]2 | B,,2 [F,B,D]2 | B,,2 [F,B,D]2 | %6
 E,2 [G,B,E]2 | C,2 [G,C=E]2 |[M:7/16] z B,[F,A,]3/2 |[M:6/8] z B,,[F,B,] [F,B,]F,,[F,B,] | %10
 [F,B,]C,[F,A,] F,F,,F, | [F,A,]C,F, [F,E]F,,F, | z3 z B,2 | %13
 D,B,,[K:treble][B,D] [B,DF][K:bass]D,[B,D] | [B,DF]E,[B,E] B,=E,B, | %15
 [B,_D]F,B, [B,=D][F,CE][F,CE]- |[M:5/8] [F,CE][B,,B,]F, D,B,,- | B,, z z z2 |] %18
V:3
 x4 | x4 | x4 | x4 | x4 | x4 | x4 | x4 |[M:7/16] =E-<E z/ z |[M:6/8] .F2 D .D2 D | D .F2 .A,2 A, | %11
 .F2 E .G2 [A,D] | [A,CE] B,2- B, z z | .F2 F .A2 F | B .A2 .E2 _D | z F2 z3 |[M:5/8] x5 | x5 |] %18
V:4
 x4 | x4 | x4 | x4 | x4 | x4 | x4 | x4 |[M:7/16] C,-<C, z/ z |[M:6/8] x6 | x6 | x6 | %12
 F,B,,D, .F,2 F, | x2[K:treble] x2[K:bass] x2 | x6 | x6 |[M:5/8] x5 | x5 |] %18

